X:33
M:6/8
L:1/8
K:A
|: E3 BGB | BdB GEG | A3 cAc | eae cAc | faf dBd | eae cAc | BdB GEG | A3 [A,3A3] :|

